X:197
T:Taladh Eirisgeach
O:Ireland
R:air
S:Mary Macinnes of Isle of Eriskay
N:Was noted by Marjory Kennedy Fraser
M:3/4
L:1/8
W:Horo lady bhig, Horo eile,
W:Horo lady bhig, Horo eile,
W:Horo lady bhig, Horo eile.
W:A luidh biodh na stuadhan 'gad luasgadh gu braudar
W:Horo lady bhig, Horo eile,
W:Horo lady bhig, Horo eile,
W:Horo la Horo la.
K:G
B3 A B2 | G3 A B2 | d3 e d2 | B3 A G2 | F3 E F2 | E3 D B2, | D3 E F2 | G4
G2 | B3 A B2 | G3 A B2 | d3 e d2 | B3 A G2 | F3 E F2 | E2 D2 B2, | D3
E F2 | G4 G2 | B3 A B2 | G3 A B2 | d3 e d2 | B3 A G2 | F3 E F2 | E3 D B2,
| D3 E F2 | G4 G2 | B3 A B2 | G6 | B3 A B2 | (G6 | G6 | G6) :|]
